images/sync.svg

<svg height="81" viewBox="0 0 122 81" width="122" xmlns="http://www.w3.org/2000/svg"><g fill="none" fill-rule="evenodd" stroke="#2470c8"><path d="m86.316 38.4627416-8-7.1476642c-.364-.3257293-.832-.505442-1.316-.505442h-38.897c-3.489-7.7174352-11.179-12.8096354-19.557-12.8096354-11.881 0-21.546 9.8688821-21.546 21.9994895 0 12.1316284 9.665 22.0005105 21.545 22.0005105 8.378 0 16.068-5.0922002 19.557-12.8106565h5.363c.301 0 .598-.0673923.868-.2021768l3.285-2.8375943 3.284 2.8375943c.55.2705901 1.188.2705901 1.736 0l3.285-2.8375943 3.287 2.8375943c.547.2705901 1.188.2705901 1.734 0l3.285-2.8375943 3.285 2.8375943c.549.2705901 1.188.2705901 1.736 0l3.285-2.8375943 3.285 2.8375943c.278.1347845.573.2021768.873.2021768h.307c.484 0 .952-.1797127 1.316-.505442l8-7.1476642c.435-.3880161.684-.9475761.684-1.5367478 0-.5891718-.249-1.1487318-.684-1.5367479zm-78.066 5.9372584c-2.96706522 0-5.38043478-2.4131556-5.38043478-5.3777778 0-2.9656 2.41336956-5.3777778 5.38043478-5.3777778 2.9670652 0 5.3804348 2.4121778 5.3804348 5.3777778 0 2.9646222-2.4133696 5.3777778-5.3804348 5.3777778z" fill="#b9d9ff" fill-rule="nonzero" stroke-width="2" transform="matrix(-.70710678 .70710678 .70710678 .70710678 43.414214 -17.982756)"/><path d="m91.8453262 38.7212179 2.4007279-2.0393153 2.398857 2.0383465 2.3992919-2.0380955 2.400241 2.0376614 2.398978-2.0378287 2.399511 2.0382817 2.399511-2.0382817 2.400619 2.0392226c.000593.000006.001187.000009.001781.000009h.177378c.036365 0 .071925-.0134301.100313-.0384107l4.622834-4.0617104c.034755-.030486.054631-.0744029.054631-.1213869s-.019876-.0909009-.054631-.1213869l-.000612-.0005375-4.622806-4.0616865c-.027804-.0244669-.063364-.0378971-.099729-.0378971h-23.1147071l-.267699-.5822979c-1.8606932-4.0473736-5.9598977-6.695904-10.3910159-6.695904-6.3112847 0-11.4488 5.1585996-11.4488 11.4997099 0 6.3415251 5.1373508 11.5002901 11.4482222 11.5002901 4.4312273 0 8.5303462-2.6486261 10.390995-6.6964385l.2676845-.5823436zm-20.3453262-.7212179c-2.2625991 0-4.1086957-1.8147671-4.1086957-4.0555556 0-2.2411808 1.8459291-4.0555555 4.1086957-4.0555555s4.1086957 1.8143747 4.1086957 4.0555555c0 2.2407885-1.8460966 4.0555556-4.1086957 4.0555556z" fill="#2470c8" fill-rule="nonzero" stroke-width="2" transform="matrix(-.70710678 .70710678 .70710678 .70710678 130.951533 -54.241901)"/><g stroke-width="5"><path d="m101.247932 42c14.65409 4.8113682 14.014525 13.7018754 0 19.9006251-9.3430166 4.1324999-24.7589939 4.1324999-46.247932 0"/><path d="m66.1722123 60.9941635-11.1722123.9064616 10.0391248 4.9855765"/></g></g></svg>

<?xml version="1.0" encoding="UTF-8" standalone="no"?>
<svg width="122px" height="81px" viewBox="0 0 122 81" version="1.1" xmlns="http://www.w3.org/2000/svg" xmlns:xlink="http://www.w3.org/1999/xlink">
    <!-- Generator: Sketch 50.2 (55047) - http://www.bohemiancoding.com/sketch -->
    <title>sync</title>
    <desc>Created with Sketch.</desc>
    <defs></defs>
    <g id="sync" stroke="none" stroke-width="1" fill="none" fill-rule="evenodd">
        <path d="M86.316,38.4627416 L78.316,31.3150774 C77.952,30.9893481 77.484,30.8096354 77,30.8096354 L38.103,30.8096354 C34.614,23.0922002 26.924,18 18.546,18 C6.665,18 -3,27.8688821 -3,39.9994895 C-3,52.1311179 6.665,62 18.545,62 C26.923,62 34.613,56.9077998 38.102,49.1893435 L43.465,49.1893435 C43.766,49.1893435 44.063,49.1219512 44.333,48.9871667 L47.618,46.1495724 L50.902,48.9871667 C51.452,49.2577568 52.09,49.2577568 52.638,48.9871667 L55.923,46.1495724 L59.21,48.9871667 C59.757,49.2577568 60.398,49.2577568 60.944,48.9871667 L64.229,46.1495724 L67.514,48.9871667 C68.063,49.2577568 68.702,49.2577568 69.25,48.9871667 L72.535,46.1495724 L75.82,48.9871667 C76.098,49.1219512 76.393,49.1893435 76.693,49.1893435 L77,49.1893435 C77.484,49.1893435 77.952,49.0096308 78.316,48.6839015 L86.316,41.5362373 C86.751,41.1482212 87,40.5886612 87,39.9994895 C87,39.4103177 86.751,38.8507577 86.316,38.4627416 Z M8.25,44.4 C5.28293478,44.4 2.86956522,41.9868444 2.86956522,39.0222222 C2.86956522,36.0566222 5.28293478,33.6444444 8.25,33.6444444 C11.2170652,33.6444444 13.6304348,36.0566222 13.6304348,39.0222222 C13.6304348,41.9868444 11.2170652,44.4 8.25,44.4 Z" id="Shape" stroke="#2470C8" stroke-width="2" fill="#B9D9FF" fill-rule="nonzero" transform="translate(42.000000, 40.000000) scale(-1, 1) rotate(45.000000) translate(-42.000000, -40.000000) "></path>
        <path d="M91.8453262,38.7212179 L94.2460541,36.6819026 L96.6449111,38.7202491 L99.044203,36.6821536 L101.444444,38.719815 L103.843422,36.6819863 L106.242933,38.720268 L108.642444,36.6819863 L111.043063,38.7212089 C111.043656,38.7212149 111.04425,38.7212179 111.044844,38.7212179 L111.222222,38.7212179 C111.258587,38.7212179 111.294147,38.7077878 111.322535,38.6828072 L115.945369,34.6210968 C115.980124,34.5906108 116,34.5466939 116,34.4997099 C116,34.4527259 115.980124,34.408809 115.945369,34.378323 L115.944757,34.3777855 L111.321951,30.316099 C111.294147,30.2916321 111.258587,30.2782019 111.222222,30.2782019 L88.1075149,30.2782019 L87.8398159,29.695904 C85.9791227,25.6485304 81.8799182,23 77.4488,23 C71.1375153,23 66,28.1585996 66,34.4997099 C66,40.841235 71.1373508,46 77.4482222,46 C81.8794495,46 85.9785684,43.3513739 87.8392172,39.3035615 L88.1069017,38.7212179 L91.8453262,38.7212179 Z M71.5,38 C69.2374009,38 67.3913043,36.1852329 67.3913043,33.9444444 C67.3913043,31.7032636 69.2372334,29.8888889 71.5,29.8888889 C73.7627666,29.8888889 75.6086957,31.7032636 75.6086957,33.9444444 C75.6086957,36.1852329 73.7625991,38 71.5,38 Z" id="Shape" stroke="#2470C8" stroke-width="2" fill="#2470C8" fill-rule="nonzero" transform="translate(91.000000, 34.500000) scale(-1, 1) rotate(45.000000) translate(-91.000000, -34.500000) "></path>
        <path d="M101.247932,42 C115.902022,46.8113682 115.262457,55.7018754 101.247932,61.9006251 C91.9049154,66.033125 76.4889381,66.033125 55,61.9006251" id="Path-3" stroke="#2470C8" stroke-width="5"></path>
        <path id="Path-3-decoration-1" d="M66.1722123,60.9941635 L55,61.9006251 L65.0391248,66.8862016" stroke="#2470C8" stroke-width="5"></path>
    </g>
</svg>
